@apps/factor/src/home/img/dashboard-mockup.svg

<svg width="420" height="249" viewBox="0 0 420 249" fill="none" xmlns="http://www.w3.org/2000/svg">
<path d="M420 249V1.00033C420 0.908538 40.0522 1.0001 0 1.00009V249H420Z" fill="white"/>
<path d="M410.11 30H113.89C112.294 30 111 31.0713 111 32.3929V228.607C111 229.929 112.294 231 113.89 231H410.11C411.706 231 413 229.929 413 228.607V32.3929C413 31.0713 411.706 30 410.11 30Z" fill="white" stroke="#ADBACC" stroke-opacity="0.2" stroke-width="2"/>
<path d="M100 7H10C7.79086 7 6 8.27606 6 9.85015V237.15C6 238.724 7.79086 240 10 240H100C102.209 240 104 238.724 104 237.15V9.85015C104 8.27606 102.209 7 100 7Z" fill="#4D394B" fill-opacity="0.07"/>
<path d="M100 8H10C8.34315 8 7 8.95761 7 10.1389V236.861C7 238.042 8.34315 239 10 239H100C101.657 239 103 238.042 103 236.861V10.1389C103 8.95761 101.657 8 100 8Z" fill="#F7F9FE"/>
<rect x="118" y="56" width="48" height="14" rx="1" fill="white"/>
<rect x="118.5" y="56.5" width="47" height="13" rx="0.5" stroke="#ADBACC" stroke-opacity="0.4"/>
<path d="M153.346 62H130.805C130.36 62 130 62.3611 130 62.8066V63.6131C130 64.0586 130.36 64.4197 130.805 64.4197H153.346C153.791 64.4197 154.151 64.0586 154.151 63.6131V62.8066C154.151 62.3611 153.791 62 153.346 62Z" fill="#506677" fill-opacity="0.15"/>
<rect x="169" y="56" width="17" height="14" rx="1" fill="white"/>
<rect x="169.5" y="56.5" width="16" height="13" rx="0.5" stroke="#ADBACC" stroke-opacity="0.4"/>
<path d="M181.7 62H173.3C173.134 62 173 62.2985 173 62.6667V63.3333C173 63.7015 173.134 64 173.3 64H181.7C181.866 64 182 63.7015 182 63.3333V62.6667C182 62.2985 181.866 62 181.7 62Z" fill="#506677" fill-opacity="0.15"/>
<path d="M404.737 36H347.263C346.566 36 346 36.7374 346 37.6471V48.3529C346 49.2626 346.566 50 347.263 50H404.737C405.434 50 406 49.2626 406 48.3529V37.6471C406 36.7374 405.434 36 404.737 36Z" fill="#0477FE"/>
<path opacity="0.5" d="M385.367 42H367.633C367.284 42 367 42.2985 367 42.6667V43.3333C367 43.7015 367.284 44 367.633 44H385.367C385.716 44 386 43.7015 386 43.3333V42.6667C386 42.2985 385.716 42 385.367 42Z" fill="white" fill-opacity="0.5"/>
<rect x="139" y="77" width="27" height="5" rx="1" fill="#E5E8EB"/>
<rect x="118" y="77" width="5" height="5" rx="1" fill="white"/>
<rect x="118.5" y="77.5" width="4" height="4" rx="0.5" stroke="#ADBACC" stroke-opacity="0.4"/>
<rect x="222" y="216" width="21" height="5" rx="1" fill="#506677" fill-opacity="0.15"/>
<rect x="245" y="213" width="11" height="10" rx="1" fill="white"/>
<rect x="245.5" y="213.5" width="10" height="9" rx="0.5" stroke="#ADBACC" stroke-opacity="0.4"/>
<path d="M251.9 217H249.1C249.045 217 249 217.298 249 217.667V218.333C249 218.702 249.045 219 249.1 219H251.9C251.955 219 252 218.702 252 218.333V217.667C252 217.298 251.955 217 251.9 217Z" fill="#506677" fill-opacity="0.15"/>
<rect x="259" y="217" width="21" height="3" rx="1" fill="#506677" fill-opacity="0.15"/>
<rect x="284" y="213" width="11" height="10" rx="1" fill="white"/>
<rect x="284.5" y="213.5" width="10" height="9" rx="0.5" stroke="#ADBACC" stroke-opacity="0.4"/>
<path d="M290.9 217H288.1C288.045 217 288 217.298 288 217.667V218.333C288 218.702 288.045 219 288.1 219H290.9C290.955 219 291 218.702 291 218.333V217.667C291 217.298 290.955 217 290.9 217Z" fill="#506677" fill-opacity="0.15"/>
<rect x="118" y="93" width="12" height="3" rx="1" fill="#506677" fill-opacity="0.15"/>
<rect x="139" y="93" width="81" height="3" rx="1" fill="#506677" fill-opacity="0.15"/>
<rect x="245" y="93" width="42" height="3" rx="1" fill="#506677" fill-opacity="0.15"/>
<rect x="312" y="93" width="42" height="3" rx="1" fill="#506677" fill-opacity="0.15"/>
<rect x="379" y="93" width="27" height="3" rx="1" fill="#506677" fill-opacity="0.15"/>
<rect x="118" y="109" width="12" height="3" rx="1" fill="#506677" fill-opacity="0.15"/>
<rect x="139" y="109" width="81" height="3" rx="1" fill="#506677" fill-opacity="0.15"/>
<rect x="245" y="109" width="42" height="3" rx="1" fill="#506677" fill-opacity="0.15"/>
<rect x="312" y="109" width="42" height="3" rx="1" fill="#506677" fill-opacity="0.15"/>
<rect x="379" y="109" width="27" height="3" rx="1" fill="#506677" fill-opacity="0.15"/>
<rect x="118" y="125" width="12" height="3" rx="1" fill="#506677" fill-opacity="0.15"/>
<rect x="139" y="125" width="81" height="3" rx="1" fill="#506677" fill-opacity="0.15"/>
<rect x="245" y="125" width="42" height="3" rx="1" fill="#506677" fill-opacity="0.15"/>
<rect x="312" y="125" width="42" height="3" rx="1" fill="#506677" fill-opacity="0.15"/>
<rect x="379" y="125" width="27" height="3" rx="1" fill="#506677" fill-opacity="0.15"/>
<rect x="118" y="141" width="12" height="3" rx="1" fill="#506677" fill-opacity="0.15"/>
<rect x="139" y="141" width="81" height="3" rx="1" fill="#506677" fill-opacity="0.15"/>
<rect x="245" y="141" width="42" height="3" rx="1" fill="#506677" fill-opacity="0.15"/>
<rect x="312" y="141" width="42" height="3" rx="1" fill="#506677" fill-opacity="0.15"/>
<rect x="379" y="141" width="27" height="3" rx="1" fill="#506677" fill-opacity="0.15"/>
<rect x="118" y="157" width="12" height="3" rx="1" fill="#506677" fill-opacity="0.15"/>
<rect x="139" y="157" width="81" height="3" rx="1" fill="#506677" fill-opacity="0.15"/>
<rect x="245" y="157" width="42" height="3" rx="1" fill="#506677" fill-opacity="0.15"/>
<rect x="312" y="157" width="42" height="3" rx="1" fill="#506677" fill-opacity="0.15"/>
<rect x="379" y="157" width="27" height="3" rx="1" fill="#506677" fill-opacity="0.15"/>
<rect x="118" y="173" width="12" height="3" rx="1" fill="#506677" fill-opacity="0.15"/>
<rect x="139" y="173" width="81" height="3" rx="1" fill="#506677" fill-opacity="0.15"/>
<rect x="245" y="173" width="42" height="3" rx="1" fill="#506677" fill-opacity="0.15"/>
<rect x="312" y="173" width="42" height="3" rx="1" fill="#506677" fill-opacity="0.15"/>
<rect x="379" y="173" width="27" height="3" rx="1" fill="#506677" fill-opacity="0.15"/>
<rect x="118" y="189" width="12" height="3" rx="1" fill="#506677" fill-opacity="0.15"/>
<rect x="139" y="189" width="81" height="3" rx="1" fill="#506677" fill-opacity="0.15"/>
<rect x="245" y="189" width="42" height="3" rx="1" fill="#506677" fill-opacity="0.15"/>
<rect x="312" y="189" width="42" height="3" rx="1" fill="#506677" fill-opacity="0.15"/>
<rect x="379" y="189" width="27" height="3" rx="1" fill="#506677" fill-opacity="0.15"/>
<rect x="245" y="77" width="27" height="5" rx="1" fill="#E5E8EB"/>
<rect x="312" y="77" width="27" height="5" rx="1" fill="#E5E8EB"/>
<rect x="379" y="77" width="27" height="5" rx="1" fill="#E5E8EB"/>
<path d="M120.682 40.2495V48H122.068V45.438H123.636C125.205 45.438 126.306 44.3906 126.306 42.8438C126.306 41.2969 125.237 40.2495 123.695 40.2495H120.682ZM122.068 41.3828H123.33C124.324 41.3828 124.898 41.9146 124.898 42.8438C124.898 43.7837 124.318 44.3208 123.325 44.3208H122.068V41.3828ZM129.491 48.1128C131.161 48.1128 132.246 47.001 132.246 45.1533C132.246 43.311 131.15 42.1885 129.491 42.1885C127.831 42.1885 126.735 43.3164 126.735 45.1533C126.735 47.001 127.82 48.1128 129.491 48.1128ZM129.491 47.0547C128.642 47.0547 128.094 46.3672 128.094 45.1533C128.094 43.9448 128.647 43.252 129.491 43.252C130.339 43.252 130.887 43.9448 130.887 45.1533C130.887 46.3672 130.339 47.0547 129.491 47.0547ZM133.003 43.9395C133.003 44.7827 133.551 45.3198 134.642 45.5615L135.587 45.771C136.183 45.9053 136.387 46.0986 136.387 46.4424C136.387 46.8667 135.984 47.1353 135.334 47.1353C134.658 47.1353 134.276 46.856 134.174 46.3027H132.858C132.966 47.4038 133.847 48.1128 135.334 48.1128C136.731 48.1128 137.719 47.3877 137.719 46.3135C137.719 45.4863 137.263 45.0298 136.081 44.7666L135.136 44.5571C134.54 44.4229 134.303 44.1973 134.303 43.8696C134.303 43.4507 134.695 43.1714 135.286 43.1714C135.904 43.1714 136.285 43.499 136.339 44.0146H137.585C137.553 42.9351 136.672 42.1885 135.286 42.1885C133.911 42.1885 133.003 42.8975 133.003 43.9395ZM138.944 40.9746V42.3066H138.127V43.3379H138.944V46.4854C138.944 47.5918 139.427 48.0269 140.657 48.0269C140.942 48.0269 141.205 48.0054 141.35 47.9731V46.9526C141.264 46.9688 141.092 46.9795 140.969 46.9795C140.496 46.9795 140.281 46.7646 140.281 46.2974V43.3379H141.355V42.3066H140.281V40.9746H138.944ZM142.167 43.9395C142.167 44.7827 142.714 45.3198 143.805 45.5615L144.75 45.771C145.346 45.9053 145.55 46.0986 145.55 46.4424C145.55 46.8667 145.147 47.1353 144.498 47.1353C143.821 47.1353 143.439 46.856 143.337 46.3027H142.021C142.129 47.4038 143.01 48.1128 144.498 48.1128C145.894 48.1128 146.882 47.3877 146.882 46.3135C146.882 45.4863 146.426 45.0298 145.244 44.7666L144.299 44.5571C143.703 44.4229 143.466 44.1973 143.466 43.8696C143.466 43.4507 143.858 43.1714 144.449 43.1714C145.067 43.1714 145.448 43.499 145.502 44.0146H146.748C146.716 42.9351 145.835 42.1885 144.449 42.1885C143.074 42.1885 142.167 42.8975 142.167 43.9395Z" fill="#506677"/>
<rect x="13" y="57" width="5" height="5" rx="1" fill="#506677" fill-opacity="0.15"/>
<path d="M57.5 92H21.5C20.6716 92 20 92.4477 20 93V94C20 94.5523 20.6716 95 21.5 95H57.5C58.3284 95 59 94.5523 59 94V93C59 92.4477 58.3284 92 57.5 92Z" fill="#506677" fill-opacity="0.15"/>
<rect x="13" y="91" width="5" height="5" rx="1" fill="#506677" fill-opacity="0.15"/>
<rect x="13" y="117" width="5" height="5" rx="1" fill="#506677" fill-opacity="0.15"/>
<rect x="13" y="130" width="5" height="5" rx="1" fill="#506677" fill-opacity="0.15"/>
<path d="M36.5 105H21.5C20.6716 105 20 105.448 20 106V107C20 107.552 20.6716 108 21.5 108H36.5C37.3284 108 38 107.552 38 107V106C38 105.448 37.3284 105 36.5 105Z" fill="#506677" fill-opacity="0.7"/>
<rect x="13" y="104" width="5" height="5" rx="1" fill="#506677" fill-opacity="0.7"/>
<path d="M32.4444 118H21.5556C20.6964 118 20 118.448 20 119V120C20 120.552 20.6964 121 21.5556 121H32.4444C33.3036 121 34 120.552 34 120V119C34 118.448 33.3036 118 32.4444 118Z" fill="#506677" fill-opacity="0.15"/>
<path d="M47.4737 131H21.5263C20.6834 131 20 131.448 20 132V133C20 133.552 20.6834 134 21.5263 134H47.4737C48.3166 134 49 133.552 49 133V132C49 131.448 48.3166 131 47.4737 131Z" fill="#506677" fill-opacity="0.15"/>
<path d="M48.5 58H21.5C20.6716 58 20 58.4477 20 59V60C20 60.5523 20.6716 61 21.5 61H48.5C49.3284 61 50 60.5523 50 60V59C50 58.4477 49.3284 58 48.5 58Z" fill="#506677" fill-opacity="0.15"/>
<path d="M49 43H15C14.4477 43 14 43.4477 14 44V47C14 47.5523 14.4477 48 15 48H49C49.5523 48 50 47.5523 50 47V44C50 43.4477 49.5523 43 49 43Z" fill="#506677" fill-opacity="0.15"/>
<path d="M73 76H15C14.4477 76 14 76.4477 14 77V80C14 80.5523 14.4477 81 15 81H73C73.5523 81 74 80.5523 74 80V77C74 76.4477 73.5523 76 73 76Z" fill="#506677" fill-opacity="0.15"/>
<rect x="396" y="18" width="29" height="5" rx="1" transform="rotate(-180 396 18)" fill="#506677" fill-opacity="0.15"/>
<rect x="412" y="22" width="12" height="12" rx="6" transform="rotate(-180 412 22)" fill="#506677" fill-opacity="0.15"/>
<rect x="30" y="19" width="29" height="5" rx="1" fill="#506677" fill-opacity="0.15"/>
<rect x="14" y="15" width="12" height="12" rx="1" fill="#0471FF"/>
<path fill-rule="evenodd" clip-rule="evenodd" d="M21.7206 20.4696L21.7196 20.4697L21.7185 20.4698C21.6616 20.4765 21.3745 20.5112 21.1018 20.5442L20.5705 20.6085L20.5367 20.6126L20.3304 21.2874L20.41 21.2779C20.9489 21.2135 21.515 21.1453 21.9464 21.0931C22.1621 21.067 22.3441 21.0449 22.4722 21.0294L22.6101 21.0126C22.5977 21.141 22.5834 21.2693 22.569 21.3981L22.569 21.3983C22.5539 21.5343 22.5387 21.6708 22.5257 21.8077C21.9531 21.8733 20.6901 22.0244 20.1449 22.101L20.1112 22.1057L20.1019 22.1385C20.0418 22.3518 19.9778 22.5619 19.9138 22.7721L19.912 22.7778C19.8475 22.9898 19.7829 23.202 19.7226 23.4168C19.547 24.0417 18.9716 24.5 18.2888 24.5C17.4665 24.5 16.8 23.8351 16.8 23.0153C16.8 22.1977 17.4039 21.5992 18.2929 21.5304L18.2939 21.5303L18.295 21.5302C18.3519 21.5235 18.641 21.4885 18.9156 21.4553L19.4851 21.3864L19.682 20.7127L19.6035 20.7221C19.0646 20.7865 18.5261 20.8508 18.1222 20.8991L17.5135 20.9718C17.5258 20.8452 17.5438 20.6758 17.5604 20.5214C17.5656 20.473 17.5707 20.426 17.5755 20.3823C17.5848 20.2965 17.5927 20.2233 17.5976 20.1767C18.1649 20.1118 19.3233 19.9756 19.8686 19.899L19.9023 19.8943L19.9116 19.8615C19.9717 19.6481 20.0357 19.4381 20.0997 19.2278L20.1015 19.2222C20.166 19.0102 20.2306 18.798 20.2909 18.5832C20.4665 17.9583 21.0419 17.5 21.7247 17.5C22.547 17.5 23.2134 18.1649 23.2134 18.9847C23.2134 19.8023 22.6095 20.4008 21.7206 20.4696ZM20.7781 19.7235L20.7573 19.7992L20.8352 19.7892C20.9268 19.7774 21.0324 19.7676 21.1447 19.7572L21.194 19.7526C21.324 19.7405 21.4607 19.7272 21.5905 19.7086C21.7201 19.6902 21.8446 19.6663 21.9498 19.6326C22.0537 19.5994 22.1458 19.5546 22.2037 19.4899C22.4788 19.1826 22.4919 18.7511 22.2174 18.4774C21.9439 18.2046 21.4534 18.1987 21.1509 18.5426C21.1129 18.5858 21.0789 18.6593 21.0478 18.7435C21.0159 18.8298 20.9844 18.9346 20.9537 19.0463C20.9229 19.1582 20.8926 19.2781 20.8633 19.3945L20.861 19.4034C20.8324 19.5169 20.8047 19.6268 20.7781 19.7235ZM19.2354 22.2765L19.2562 22.2008L19.1783 22.2108C19.0866 22.2226 18.981 22.2324 18.8688 22.2428L18.8195 22.2474C18.6895 22.2595 18.5527 22.2728 18.423 22.2914C18.2934 22.3098 18.1689 22.3337 18.0637 22.3674C17.9598 22.4006 17.8677 22.4454 17.8097 22.5101C17.5347 22.8174 17.5216 23.2489 17.7961 23.5226C18.0696 23.7954 18.5601 23.8013 18.8626 23.4574C18.9006 23.4142 18.9346 23.3407 18.9657 23.2565C18.9976 23.1702 19.0291 23.0654 19.0598 22.9537C19.0906 22.8418 19.1209 22.7219 19.1502 22.6055L19.1525 22.5966C19.1811 22.4831 19.2088 22.3732 19.2354 22.2765Z" fill="white"/>
</svg>

<svg width="420" height="249" xmlns="http://www.w3.org/2000/svg" fill="none" viewBox="0 0 420 249">
  <defs />
  <path fill="#fff" d="M420 249V1C420 .9 40.05 1 0 1v248h420z" />
  <path fill="#fff" stroke="#ADBACC" stroke-opacity=".2" stroke-width="2"
    d="M410.11 30H113.89c-1.6 0-2.89 1.07-2.89 2.4v196.2c0 1.33 1.3 2.4 2.89 2.4h296.22c1.6 0 2.89-1.07 2.89-2.4V32.4c0-1.33-1.3-2.4-2.89-2.4z" />
  <path fill="#4D394B" fill-opacity=".07"
    d="M100 7H10C7.8 7 6 8.28 6 9.85v227.3c0 1.57 1.8 2.85 4 2.85h90c2.2 0 4-1.28 4-2.85V9.85c0-1.57-1.8-2.85-4-2.85z" />
  <path fill="#F7F9FE"
    d="M100 8H10c-1.66 0-3 .96-3 2.14v226.72c0 1.18 1.34 2.14 3 2.14h90c1.66 0 3-.96 3-2.14V10.14c0-1.18-1.34-2.14-3-2.14z" />
  <rect width="48" height="14" x="118" y="56" fill="#fff" rx="1" />
  <rect width="47" height="13" x="118.5" y="56.5" stroke="#ADBACC" stroke-opacity=".4" rx=".5" />
  <path fill="#506677" fill-opacity=".15"
    d="M153.35 62H130.8a.8.8 0 00-.81.8v.81c0 .45.36.81.8.81h22.55a.8.8 0 00.8-.8v-.81a.8.8 0 00-.8-.81z" />
  <rect width="17" height="14" x="169" y="56" fill="#fff" rx="1" />
  <rect width="16" height="13" x="169.5" y="56.5" stroke="#ADBACC" stroke-opacity=".4" rx=".5" />
  <path fill="#506677" fill-opacity=".15"
    d="M181.7 62h-8.4c-.17 0-.3.3-.3.67v.66c0 .37.13.67.3.67h8.4c.17 0 .3-.3.3-.67v-.66c0-.37-.13-.67-.3-.67z" />
  <path fill="#0477FE"
    d="M404.74 36h-57.48c-.7 0-1.26.74-1.26 1.65v10.7c0 .91.57 1.65 1.26 1.65h57.48c.7 0 1.26-.74 1.26-1.65v-10.7c0-.91-.57-1.65-1.26-1.65z" />
  <path fill="#fff" fill-opacity=".5"
    d="M385.37 42h-17.74c-.35 0-.63.3-.63.67v.66c0 .37.28.67.63.67h17.74c.35 0 .63-.3.63-.67v-.66a.65.65 0 00-.63-.67z"
    opacity=".5" />
  <rect width="27" height="5" x="139" y="77" fill="#E5E8EB" rx="1" />
  <rect width="5" height="5" x="118" y="77" fill="#fff" rx="1" />
  <rect width="4" height="4" x="118.5" y="77.5" stroke="#ADBACC" stroke-opacity=".4" rx=".5" />
  <rect width="21" height="5" x="222" y="216" fill="#506677" fill-opacity=".15" rx="1" />
  <rect width="11" height="10" x="245" y="213" fill="#fff" rx="1" />
  <rect width="10" height="9" x="245.5" y="213.5" stroke="#ADBACC" stroke-opacity=".4" rx=".5" />
  <path fill="#506677" fill-opacity=".15"
    d="M251.9 217h-2.8c-.06 0-.1.3-.1.67v.66c0 .37.04.67.1.67h2.8c.06 0 .1-.3.1-.67v-.66c0-.37-.04-.67-.1-.67z" />
  <rect width="21" height="3" x="259" y="217" fill="#506677" fill-opacity=".15" rx="1" />
  <rect width="11" height="10" x="284" y="213" fill="#fff" rx="1" />
  <rect width="10" height="9" x="284.5" y="213.5" stroke="#ADBACC" stroke-opacity=".4" rx=".5" />
  <path fill="#506677" fill-opacity=".15"
    d="M290.9 217h-2.8c-.06 0-.1.3-.1.67v.66c0 .37.05.67.1.67h2.8c.06 0 .1-.3.1-.67v-.66c0-.37-.05-.67-.1-.67z" />
  <rect width="12" height="3" x="118" y="93" fill="#506677" fill-opacity=".15" rx="1" />
  <rect width="81" height="3" x="139" y="93" fill="#506677" fill-opacity=".15" rx="1" />
  <rect width="42" height="3" x="245" y="93" fill="#506677" fill-opacity=".15" rx="1" />
  <rect width="42" height="3" x="312" y="93" fill="#506677" fill-opacity=".15" rx="1" />
  <rect width="27" height="3" x="379" y="93" fill="#506677" fill-opacity=".15" rx="1" />
  <rect width="12" height="3" x="118" y="109" fill="#506677" fill-opacity=".15" rx="1" />
  <rect width="81" height="3" x="139" y="109" fill="#506677" fill-opacity=".15" rx="1" />
  <rect width="42" height="3" x="245" y="109" fill="#506677" fill-opacity=".15" rx="1" />
  <rect width="42" height="3" x="312" y="109" fill="#506677" fill-opacity=".15" rx="1" />
  <rect width="27" height="3" x="379" y="109" fill="#506677" fill-opacity=".15" rx="1" />
  <rect width="12" height="3" x="118" y="125" fill="#506677" fill-opacity=".15" rx="1" />
  <rect width="81" height="3" x="139" y="125" fill="#506677" fill-opacity=".15" rx="1" />
  <rect width="42" height="3" x="245" y="125" fill="#506677" fill-opacity=".15" rx="1" />
  <rect width="42" height="3" x="312" y="125" fill="#506677" fill-opacity=".15" rx="1" />
  <rect width="27" height="3" x="379" y="125" fill="#506677" fill-opacity=".15" rx="1" />
  <rect width="12" height="3" x="118" y="141" fill="#506677" fill-opacity=".15" rx="1" />
  <rect width="81" height="3" x="139" y="141" fill="#506677" fill-opacity=".15" rx="1" />
  <rect width="42" height="3" x="245" y="141" fill="#506677" fill-opacity=".15" rx="1" />
  <rect width="42" height="3" x="312" y="141" fill="#506677" fill-opacity=".15" rx="1" />
  <rect width="27" height="3" x="379" y="141" fill="#506677" fill-opacity=".15" rx="1" />
  <rect width="12" height="3" x="118" y="157" fill="#506677" fill-opacity=".15" rx="1" />
  <rect width="81" height="3" x="139" y="157" fill="#506677" fill-opacity=".15" rx="1" />
  <rect width="42" height="3" x="245" y="157" fill="#506677" fill-opacity=".15" rx="1" />
  <rect width="42" height="3" x="312" y="157" fill="#506677" fill-opacity=".15" rx="1" />
  <rect width="27" height="3" x="379" y="157" fill="#506677" fill-opacity=".15" rx="1" />
  <rect width="12" height="3" x="118" y="173" fill="#506677" fill-opacity=".15" rx="1" />
  <rect width="81" height="3" x="139" y="173" fill="#506677" fill-opacity=".15" rx="1" />
  <rect width="42" height="3" x="245" y="173" fill="#506677" fill-opacity=".15" rx="1" />
  <rect width="42" height="3" x="312" y="173" fill="#506677" fill-opacity=".15" rx="1" />
  <rect width="27" height="3" x="379" y="173" fill="#506677" fill-opacity=".15" rx="1" />
  <rect width="12" height="3" x="118" y="189" fill="#506677" fill-opacity=".15" rx="1" />
  <rect width="81" height="3" x="139" y="189" fill="#506677" fill-opacity=".15" rx="1" />
  <rect width="42" height="3" x="245" y="189" fill="#506677" fill-opacity=".15" rx="1" />
  <rect width="42" height="3" x="312" y="189" fill="#506677" fill-opacity=".15" rx="1" />
  <rect width="27" height="3" x="379" y="189" fill="#506677" fill-opacity=".15" rx="1" />
  <rect width="27" height="5" x="245" y="77" fill="#E5E8EB" rx="1" />
  <rect width="27" height="5" x="312" y="77" fill="#E5E8EB" rx="1" />
  <rect width="27" height="5" x="379" y="77" fill="#E5E8EB" rx="1" />
  <path fill="#506677"
    d="M120.68 40.25V48h1.39v-2.56h1.57c1.56 0 2.67-1.05 2.67-2.6 0-1.54-1.07-2.6-2.62-2.6h-3zm1.39 1.13h1.26c1 0 1.57.53 1.57 1.46 0 .94-.58 1.48-1.58 1.48h-1.25v-2.94zm7.42 6.73c1.67 0 2.76-1.1 2.76-2.96 0-1.84-1.1-2.96-2.76-2.96-1.66 0-2.76 1.13-2.76 2.96 0 1.85 1.09 2.96 2.76 2.96zm0-1.06c-.85 0-1.4-.68-1.4-1.9 0-1.2.56-1.9 1.4-1.9.85 0 1.4.7 1.4 1.9 0 1.22-.55 1.9-1.4 1.9zm3.51-3.11c0 .84.55 1.38 1.64 1.62l.95.21c.6.14.8.33.8.67 0 .43-.4.7-1.06.7-.67 0-1.05-.28-1.16-.84h-1.31c.1 1.1.99 1.81 2.47 1.81 1.4 0 2.39-.72 2.39-1.8 0-.82-.46-1.28-1.64-1.54l-.94-.21c-.6-.14-.84-.36-.84-.69 0-.42.4-.7.99-.7.61 0 1 .33 1.05.84h1.25c-.04-1.07-.92-1.82-2.3-1.82s-2.29.7-2.29 1.75zm5.94-2.97v1.34h-.81v1.03h.81v3.15c0 1.1.49 1.54 1.72 1.54.28 0 .55-.02.69-.06v-1.02c-.09.02-.26.03-.38.03-.47 0-.69-.22-.69-.68v-2.96h1.07V42.3h-1.07v-1.34h-1.34zm3.23 2.97c0 .84.54 1.38 1.64 1.62l.94.21c.6.14.8.33.8.67 0 .43-.4.7-1.05.7-.68 0-1.06-.28-1.16-.84h-1.32c.1 1.1.99 1.81 2.48 1.81 1.4 0 2.38-.72 2.38-1.8 0-.82-.45-1.28-1.64-1.54l-.94-.21c-.6-.14-.83-.36-.83-.69 0-.42.39-.7.98-.7.62 0 1 .33 1.05.84h1.25c-.03-1.07-.91-1.82-2.3-1.82-1.38 0-2.28.7-2.28 1.75z" />
  <rect width="5" height="5" x="13" y="57" fill="#506677" fill-opacity=".15" rx="1" />
  <path fill="#506677" fill-opacity=".15"
    d="M57.5 92h-36c-.83 0-1.5.45-1.5 1v1c0 .55.67 1 1.5 1h36c.83 0 1.5-.45 1.5-1v-1c0-.55-.67-1-1.5-1z" />
  <rect width="5" height="5" x="13" y="91" fill="#506677" fill-opacity=".15" rx="1" />
  <rect width="5" height="5" x="13" y="117" fill="#506677" fill-opacity=".15" rx="1" />
  <rect width="5" height="5" x="13" y="130" fill="#506677" fill-opacity=".15" rx="1" />
  <path fill="#506677" fill-opacity=".7"
    d="M36.5 105h-15c-.83 0-1.5.45-1.5 1v1c0 .55.67 1 1.5 1h15c.83 0 1.5-.45 1.5-1v-1c0-.55-.67-1-1.5-1z" />
  <rect width="5" height="5" x="13" y="104" fill="#506677" fill-opacity=".7" rx="1" />
  <path fill="#506677" fill-opacity=".15"
    d="M32.44 118H21.56c-.86 0-1.56.45-1.56 1v1c0 .55.7 1 1.56 1h10.88c.86 0 1.56-.45 1.56-1v-1c0-.55-.7-1-1.56-1zM47.47 131H21.53c-.85 0-1.53.45-1.53 1v1c0 .55.68 1 1.53 1h25.94c.85 0 1.53-.45 1.53-1v-1c0-.55-.68-1-1.53-1zM48.5 58h-27c-.83 0-1.5.45-1.5 1v1c0 .55.67 1 1.5 1h27c.83 0 1.5-.45 1.5-1v-1c0-.55-.67-1-1.5-1zM49 43H15a1 1 0 00-1 1v3a1 1 0 001 1h34a1 1 0 001-1v-3a1 1 0 00-1-1zM73 76H15a1 1 0 00-1 1v3a1 1 0 001 1h58a1 1 0 001-1v-3a1 1 0 00-1-1z" />
  <rect width="29" height="5" x="396" y="18" fill="#506677" fill-opacity=".15" rx="1" transform="rotate(-180 396 18)" />
  <rect width="12" height="12" x="412" y="22" fill="#506677" fill-opacity=".15" rx="6"
    transform="rotate(-180 412 22)" />
  <rect width="29" height="5" x="30" y="19" fill="#506677" fill-opacity=".15" rx="1" />
  <rect width="12" height="12" x="14" y="15" fill="#0471FF" rx="1" />
  <path fill="#fff" fill-rule="evenodd"
    d="M16.6 21a2.57 2.57 0 012.57-2.57h1.58a2.57 2.57 0 010 5.14h-1.58A2.57 2.57 0 0116.6 21zm2.57-1.38a1.38 1.38 0 100 2.76h1.58a1.38 1.38 0 000-2.76h-1.58z"
    clip-rule="evenodd" />
  <path fill="#fff" fill-rule="evenodd"
    d="M19.55 25a.14.14 0 01-.14-.14v-7.72c0-.08.06-.14.14-.14h.9c.09 0 .15.06.15.14v7.72c0 .08-.06.14-.14.14h-.91z"
    clip-rule="evenodd" />
</svg>
